src/icons/hds/ui/ticket.svg

<svg xmlns="http://www.w3.org/2000/svg" width="24" height="24" viewBox="0 0 24 24">
  <g fill="none" fill-rule="evenodd">
    <rect width="24" height="24"/>
    <path fill="currentColor" d="M14.5,2 L17.625,5.125 L17,5.75 C16.654822,6.09517797 16.654822,6.65482203 17,7 C17.3205224,7.3205224 17.8259671,7.34341686 18.172907,7.06868337 L18.25,7 L18.875,6.375 L22,9.5 L9.5,22 L6.375,18.875 L7,18.25 C7.34517797,17.904822 7.34517797,17.345178 7,17 C6.6794776,16.6794776 6.17403291,16.6565831 5.82709304,16.9313166 L5.75,17 L5.125,17.625 L2,14.5 L14.5,2 Z M14.5,4.5 L11.4995037,7.5 C11.7555914,7.49987382 12.0117184,7.59750485 12.2071068,7.79289322 C12.5976311,8.18341751 12.5976311,8.81658249 12.2071068,9.20710678 C11.8165825,9.59763107 11.1834175,9.59763107 10.7928932,9.20710678 C10.6300696,9.04428314 10.535133,8.83927991 10.5080834,8.62726946 L10.5,8.49950371 L4.5,14.5 L5.23125,15.23125 L5.40001548,15.1583764 L5.57250914,15.097121 C6.322602,14.8596858 7.15742621,14.963861 7.83316694,15.4096466 L7.99864678,15.5282099 L8.13664657,15.6430124 L8.25,15.75 L8.38816734,15.8989987 C9.00139613,16.6127107 9.17289488,17.5752708 8.90266358,18.428171 L8.8379957,18.6091262 L8.768125,18.768125 L9.5,19.5 L15.5024815,13.5 C15.2457326,13.5006301 14.9887865,13.403 14.7928932,13.2071068 C14.4023689,12.8165825 14.4023689,12.1834175 14.7928932,11.7928932 C15.1834175,11.4023689 15.8165825,11.4023689 16.2071068,11.7928932 C16.3703512,11.9561376 16.4653572,12.1617798 16.4921249,12.3743742 L16.5,12.5024815 L19.5,9.5 L18.768125,8.768125 L18.5999845,8.84162359 L18.4274909,8.90287898 C17.677398,9.14031422 16.8425738,9.03613901 16.1668331,8.59035335 L16.0013532,8.47179005 L15.8633534,8.35698756 L15.75,8.25 L15.6118327,8.10100128 C14.9986039,7.38728934 14.8271051,6.42472925 15.0973364,5.57182898 L15.1620043,5.39087375 L15.23125,5.23125 L14.5,4.5 Z M12.7928932,9.79289322 C13.1834175,9.40236893 13.8165825,9.40236893 14.2071068,9.79289322 C14.5976311,10.1834175 14.5976311,10.8165825 14.2071068,11.2071068 C13.8165825,11.5976311 13.1834175,11.5976311 12.7928932,11.2071068 C12.4023689,10.8165825 12.4023689,10.1834175 12.7928932,9.79289322 Z"/>
  </g>
</svg>

<svg viewBox="0 0 24 24" role="img" xmlns="http://www.w3.org/2000/svg"><g fill="none" fill-rule="evenodd"><path d="M0 0h24v24H0z"/><path d="M14.5 2l3.125 3.125L17 5.75a.884.884 0 001.173 1.319L18.25 7l.625-.625L22 9.5 9.5 22l-3.125-3.125L7 18.25a.884.884 0 00-1.173-1.319L5.75 17l-.625.625L2 14.5 14.5 2zm0 2.5l-3 3a1 1 0 11-.991 1.127L10.5 8.5l-6 6 .731.731.169-.073.173-.06a2.656 2.656 0 012.26.312l.166.118.138.115.113.107.138.149c.613.714.785 1.676.515 2.53l-.065.18-.07.16.732.731 6.002-6a1 1 0 11.99-1.126l.008.128 3-3.002-.732-.732-.168.074-.173.06a2.656 2.656 0 01-2.26-.312L16 8.472l-.138-.115-.113-.107-.138-.149a2.652 2.652 0 01-.515-2.53l.065-.18.07-.16L14.5 4.5zm-1.707 5.293a1 1 0 111.414 1.414 1 1 0 01-1.414-1.414z" fill="currentColor"/></g></svg>
